X:1
T:Sans lever le pied
T:Pierre Cler'eau
T:Source : La fleur des chansons à 3---Louvain---P.Phalèse---1574. Editor : André Vierendeels (20/09/18) Notes : Original clefs : G2, G2, C1 Original note values have been halved Editorial accidentals above the staff
T:Sans lever le pied
T:©
T:©
T:©
T:©
T:©
T:©
T:©
C:Pierre Cler'eau
Z:©
%%score [ 1 2 3 ]
L:1/8
Q:1/4=120
M:2/2
K:F
V:1 treble nm="Soprano 1" snm="S 1"
V:2 treble nm="Soprano 2" snm="S 2"
V:3 treble nm="Alto" snm="A"
V:1
 AAAG F3 G | A2 c3 B A2 | G2 F4 E2 | F4 z4 | AAAG F2 G2 | A2 c3 B A2 | G4 F2 z2 | A2 AB c3 c | %8
w: Sans le- ver le pied, i'ab-|bat- tray la rou-|sé- * *|e,|sans le- ver le pied, i'ab-|bat- tray la rou-|sé- e,|en un iar- din seu-|
 dffe d2 c2 | f2 fe d3 d | ABcc B2 AG | A4 z2 f2 | fe d2 z2 f2 | fe d3 dAB | cc B2 A2 z2 | %15
w: let- te suis al- lé- e,|as- sez long temps de-|meu- rant es- ga- ré- * *|e, as-|sez long temps, as-|sez long temps de- meu- rant|es- ga- ré- e,|
 A2 AB c2 z2 | A2 AB c2 z2 | z cdf ec d2 | c2 z2 f2 fe | d2 z2 z4 | f2 f>e d3 d | ABcc B2 A2 | %22
w: mon a- my vint,|mon a- my vint|qui m'a aus- si trou- vé-|e, deux ou trois|fois,|deux ou trois fois sus|l'her- be m'a iet- té- e,|
 f2 fe d3 c | B2 A2 Ac B2 | Affd ef d2 | cBAB c2 z2 | c2 cA B2 c2 | A2 F2 z ccA | BB c2 Affd | %29
w: sus l'her- be m'a iet-|té- e, sus l'her- be|m'a, sus l'her- be m'a iet- té-|* * * * e,|sus l'her- be m'a iet-|té- e, sus l'her- be|m'a iet- té- e, sus l'her- be|
 e2 f2 d4 | c2 A2 G4 | z4 AAAG | F3 G A2 c2- | cB A2 G4 | F2 z2 AAAG | F3 G A2 c2- | cB A2 G2 F2- | %37
w: m'a iet- té-|* * e,|sans le- ver le|pied i'ab- bat- tray|_ la rou- sé-|e, sans le- ver le|pied i'ab- bat- tray|_ la rou- sé- *|
 F2 E2 F4- | F8 |] %39
w: * * e.|_|
V:2
 z4 AAAG | F3 G A2 c2 | B2 A2 G4 | F2 z2 AAAG | F3 G A2 c2- | cB A2 G2 F2- | F2 E2 F4 | %7
w: Sans le- ver le|pied i'ab- bat- tray|la rou- sé-|e, sans le- ver le|pied i'ab- bat- tray|_ la rou- sé- *|* * e,|
 z2 A2 AB c2 | z2 c2 dffe | d2 c2 f2 z2 | f2 fe d2 cB | c2 z f fe d2 | z2 f2 fedc | deff B2 f2 | %14
w: en un iar- din|seu- let- te suis al-|lé- * e,|as- sez long temps, _ _|_ as- sez long temps,|as- sez long temps de-|meu- rant e- ga- ré- e,|
 z4 z AAB | c2 z2 A2 AB | ccdf ec d2 | c2 B2 c2 f2 | fe d2 z4 | f2 fe d3 d | ABcc B2 A2 | %21
w: mon a- my|vint, mon a- my|vint qui m'a aus- si trou- vé-|* * e, deux|ou trois fois,|deux ou trois fois sus|l'her- be m'a iet- té- e,|
 z4 f2 fe | d4 z4 | z2 f2 fe d2- | ddAB cA B2 | A4 z ffd | e2 f2 d2 ec | c2 A2 G2 z f | %28
w: deux ou trois|fois,|deux ou trois fois|_ sus l'her- be m'a iet- té-|e, sus l'her- be|m'a iet- té- e, deux|ou trois fois sus|
 fd e2 f2 d2- | dc c4 B2 | c8 | AAAG F3 G | A2 c3 B A2 | G2 F4 E2 | F4 z4 | AAAG F2 G2 | %36
w: l'her- be m'a iet- té-||e,|sans le- ver le pied, i'ab-|bat- tray la rou-|sé- * *|e,|sans le- ver le pied, i'ab-|
 A2 c3 B A2 | G4 F4- | F8 |] %39
w: bat- tray la rou-|sé- e.|_|
V:3
 z8 | z2 F2 F3 C | _E2 F2 C2 C2 | AAAG F3 E | D6 C2 | F2 F2 E2 F2 | C4 z2 D2 | DE F4 F2 | %8
w: |I'ab- bat- tray|la rou- sé- e,|sans le- ver le pied i'ab-|bat- tray|la rou- sé- *|e, en|un iar- din seu-|
 D2 C2 z2 F2 | FGAA DDGG | F2 C2 z2 F2 | FE D2 C2 FG | AA B2 A2 z2 | B2 BA GGFD | EF G2 F4 | %15
w: let- te, en|un iar- din seul- let- te suis al-|lé- e, as-|sez long temps de- meu- rant|es- ga- ré- e,|mon a- my vint qui m'a aus-|si trou- vé- e,|
 z2 A2 AB c2 | F2 DD CC G2 | C2 z2 z FFG | A2 B2 F2 A2 | B2 F2 G4 | FGAF G2 D2 | F2 FE D4 | %22
w: mon a- my vint|qui m'a aus- si trou- vé-|e, mon a- my|vint qui m'a aus-|si trou- vé-|* * * * * e,|deux ou trois fois,|
 z2 B2 BA G2- | GGDE FF G2 | D4 z4 | F2 FD EF D2 | C2 F2 G2 C2 | F2 FD E2 F2 | D2 C2 F2 BB | %29
w: deux ou trois fois|_ sus l'her- be m'a iet- té-|e,|sus l'her- be m'a iet- té-|* * * e,|sus l'her- be m'a iet-|té- e, sus l'her- be|
 A2 F2 G4 | C2 F4 E2 | F4 z4 | z2 F2 F3 C | _E2 F2 C2 C2 | AAAG F3 E | D6 C2 | F4 E2 F2 | C4 F4- | %38
w: m'a iet- té-||e,|i'ab- bat- tray|la rou- sé- e,|sans le- ver le pied, i'ab-|bat- tray|la rou- *|sé- e.|
 F8 |] %39
w: _|

